app/src/assets/image/logos/less.svg

<svg version="1" xmlns="http://www.w3.org/2000/svg" width="561.333" height="266.667" viewBox="0 0 421.000000 200.000000"><path fill="#fdfdfd" d="M0 100V0h421v200H0V100z"/><path fill="#050505" d="M48 198c-14-1-23-7-28-17-2-5-2-7-3-31 0-25 0-27-2-31-3-5-7-8-12-9l-3-1V90h2c4-1 10-4 12-10 3-4 3-5 4-30 0-14 1-27 1-29 2-6 4-9 8-13 8-6 19-8 46-8h18l1 67v68l4 3c2 2 5 4 7 4l5 1-1 4c0 2-1 7-2 10l-1 7-5-1c-14-2-20-4-26-11s-6-6-6-72l-1-60h-7c-8 0-13 1-16 6-2 3-2 5-3 28 0 30-1 33-8 41l-5 5 5 4c7 8 8 11 8 41 1 18 1 25 2 27 2 4 9 8 15 8h5v20l-4-1c-2 0-7 0-10-1zm311-8v-10l5-1c4 0 8-1 9-2 6-3 6-6 7-32 0-29 1-33 9-41l4-4-5-5c-7-8-8-11-8-41-1-23-1-25-3-28-3-4-8-6-14-6h-4V0h3c5 0 17 1 22 3 8 3 14 9 17 18 0 2 1 15 1 29 1 25 1 26 4 30 2 6 8 9 12 10h3v19l-4 1c-5 1-9 4-12 9-2 4-2 6-3 31 0 24 0 26-2 31-3 7-9 12-16 15-5 1-17 3-23 3l-2 1v-10zm-214-29c-15-3-25-11-31-24-11-23-7-55 9-72 18-18 49-19 66-3 11 9 16 24 16 43v10h-71v3c0 2 1 6 3 10 2 5 4 7 8 9 3 2 8 4 11 5 9 1 27 0 37-4 1-1 1 1 2 6 1 4 2 8 2 10 1 3 0 4-2 5-13 4-37 6-50 2zm35-68c-2-10-7-18-14-21-4-1-14-1-18 1-5 3-11 9-13 15-3 9-5 9 22 9h24l-1-4zm48 70c-1 0-6-2-10-3-7-1-8-2-8-4s3-17 3-18c1 0 5 1 9 2 7 2 10 3 20 3 14 0 18-1 20-6 4-8-2-14-20-21-15-6-23-11-27-18-2-4-3-6-3-14-1-7 0-9 2-14 3-7 8-11 15-15 8-3 18-5 29-4 8 1 23 4 24 5 0 0 0 5-2 10-1 8-2 10-3 9-11-4-29-5-35-2-5 2-7 6-6 10 1 5 4 8 13 12 19 8 23 10 28 13 2 2 6 6 7 8 3 5 3 6 3 16 0 12-1 15-7 21-7 7-19 11-37 10h-15zm81 0c-4-1-14-3-17-4l-2-1 2-10c1-6 2-10 2-10 0-1 4 1 9 2 7 2 10 3 21 3 10 0 13 0 15-2 7-4 6-13-1-18-2-1-9-5-15-7-18-7-24-12-28-20-3-6-3-18-1-24 6-17 26-24 52-20 15 2 18 3 17 6 0 1-1 5-2 10-1 6-2 7-3 7-11-4-29-5-35-2-9 5-8 14 1 19 2 1 9 4 15 7 17 7 23 11 27 19 3 6 3 19 1 25-4 10-13 16-25 19-7 1-28 2-33 1z"/></svg>

<?xml version="1.0" standalone="no"?>

<!DOCTYPE svg PUBLIC "-//W3C//DTD SVG 20010904//EN"

 "http://www.w3.org/TR/2001/REC-SVG-20010904/DTD/svg10.dtd">

<svg version="1.0" xmlns="http://www.w3.org/2000/svg"

 width="421.000000pt" height="200.000000pt" viewBox="0 0 421.000000 200.000000"

 preserveAspectRatio="xMidYMid meet">

<path fill="#fdfdfd" stroke="none" d="
M0 100

L0 0

L210 0

L421 0

L421 100

L421 200

L210 200

L0 200

L0 100

Z

"/>

<path fill="#050505" stroke="none" d="
M48 198

C34 197 25 191 20 181

C18 176 18 174 17 150

C17 125 17 123 15 119

C12 114 8 111 3 110

L0 109

L0 99

L0 90

L2 90

C6 89 12 86 14 80

C17 76 17 75 18 50

C18 36 19 23 19 21

C21 15 23 12 27 8

C35 2 46 0 73 0

L91 0

L92 67

L92 135

L96 138

C98 140 101 142 103 142

L108 143

L107 147

C107 149 106 154 105 157

L104 164

L99 163

C85 161 79 159 73 152

C67 145 67 146 67 80

L66 20

L59 20

C51 20 46 21 43 26

C41 29 41 31 40 54

C40 84 39 87 32 95

L27 100

L32 104

C39 112 40 115 40 145

C41 163 41 170 42 172

C44 176 51 180 57 180

L62 180

L62 190

L62 200

L58 199

C56 199 51 199 48 198

Z

M359 190

L359 180

L364 179

C368 179 372 178 373 177

C379 174 379 171 380 145

C380 116 381 112 389 104

L393 100

L388 95

C381 87 380 84 380 54

C379 31 379 29 377 26

C374 22 369 20 363 20

L359 20

L359 10

L359 0

L362 0

C367 0 379 1 384 3

C392 6 398 12 401 21

C401 23 402 36 402 50

C403 75 403 76 406 80

C408 86 414 89 418 90

L421 90

L421 99

L421 109

L417 110

C412 111 408 114 405 119

C403 123 403 125 402 150

C402 174 402 176 400 181

C397 188 391 193 384 196

C379 197 367 199 361 199

L359 200

L359 190

Z

M145 161

C130 158 120 150 114 137

C103 114 107 82 123 65

C141 47 172 46 189 62

C200 71 205 86 205 105

L205 115

L169 115

L134 115

L134 118

C134 120 135 124 137 128

C139 133 141 135 145 137

C148 139 153 141 156 142

C165 143 183 142 193 138

C194 137 194 139 195 144

C196 148 197 152 197 154

C198 157 197 158 195 159

C182 163 158 165 145 161

Z

M180 93

C178 83 173 75 166 72

C162 71 152 71 148 73

C143 76 137 82 135 88

C132 97 130 97 157 97

L181 97

L180 93

Z

M228 163

C227 163 222 161 218 160

C211 159 210 158 210 156

C210 154 213 139 213 138

C214 138 218 139 222 140

C229 142 232 143 242 143

C256 143 260 142 262 137

C266 129 260 123 242 116

C227 110 219 105 215 98

C213 94 212 92 212 84

C211 77 212 75 214 70

C217 63 222 59 229 55

C237 52 247 50 258 51

C266 52 281 55 282 56

C282 56 282 61 280 66

C279 74 278 76 277 75

C266 71 248 70 242 73

C237 75 235 79 236 83

C237 88 240 91 249 95

C268 103 272 105 277 108

C279 110 283 114 284 116

C287 121 287 122 287 132

C287 144 286 147 280 153

C273 160 261 164 243 163

C236 163 229 163 228 163

Z

M309 163

C305 162 295 160 292 159

L290 158

L292 148

C293 142 294 138 294 138

C294 137 298 139 303 140

C310 142 313 143 324 143

C334 143 337 143 339 141

C346 137 345 128 338 123

C336 122 329 118 323 116

C305 109 299 104 295 96

C292 90 292 78 294 72

C300 55 320 48 346 52

C361 54 364 55 363 58

C363 59 362 63 361 68

C360 74 359 75 358 75

C347 71 329 70 323 73

C314 78 315 87 324 92

C326 93 333 96 339 99

C356 106 362 110 366 118

C369 124 369 137 367 143

C363 153 354 159 342 162

C335 163 314 164 309 163

Z

"/>

</svg>
